public/icons/icon/menu.svg

<svg width="30" height="30" viewBox="0 0 30 30" fill="none" xmlns="http://www.w3.org/2000/svg">
<path d="M3.92308 6C3.41328 6 3 6.44772 3 7C3 7.55228 3.41328 8 3.92308 8H26.0769C26.5867 8 27 7.55228 27 7C27 6.44772 26.5867 6 26.0769 6H3.92308Z" fill="black"/>
<path d="M3 15C3 14.4477 3.41328 14 3.92308 14H26.0769C26.5867 14 27 14.4477 27 15C27 15.5523 26.5867 16 26.0769 16H3.92308C3.41328 16 3 15.5523 3 15Z" fill="black"/>
<path d="M3 23C3 22.4477 3.41328 22 3.92308 22H26.0769C26.5867 22 27 22.4477 27 23C27 23.5523 26.5867 24 26.0769 24H3.92308C3.41328 24 3 23.5523 3 23Z" fill="black"/>
</svg>

<svg xmlns="http://www.w3.org/2000/svg" width="30" height="30" fill="none"><path fill="#000" d="M3.923 6C3.413 6 3 6.448 3 7s.413 1 .923 1h22.154c.51 0 .923-.448.923-1s-.413-1-.923-1H3.923ZM3 15c0-.552.413-1 .923-1h22.154c.51 0 .923.448.923 1s-.413 1-.923 1H3.923C3.413 16 3 15.552 3 15ZM3 23c0-.552.413-1 .923-1h22.154c.51 0 .923.448.923 1s-.413 1-.923 1H3.923C3.413 24 3 23.552 3 23Z"/></svg>
